public/static/b72a548bdeb64cc10f2b54e3c5e9c8ef/logo.svg

<svg width="257" height="337" viewBox="0 0 257 337" fill="none" xmlns="http://www.w3.org/2000/svg">
<circle cx="115.804" cy="129.351" r="115.804" fill="#174C9B"/>
<path d="M131.485 170.816H193.301V185.562H109.415V172.281L167.716 94.8394H110.294V79.898H190.372V92.691L131.485 170.816Z" fill="white"/>
<path d="M108.872 175.12C101.841 183.388 91.5222 187.522 77.9154 187.522C66.6524 187.522 58.0587 184.267 52.1342 177.756C46.2748 171.181 43.3126 161.48 43.2475 148.655V79.9048H61.3139V148.167C61.3139 164.182 67.8243 172.19 80.8451 172.19C94.6472 172.19 103.827 167.047 108.384 156.76V79.9048H126.451V185.569H109.263L108.872 175.12Z" fill="white"/>
</svg>

<svg width="257" height="337" viewBox="0 0 257 337" fill="none" xmlns="http://www.w3.org/2000/svg"><circle cx="115.804" cy="129.351" r="115.804" fill="#174C9B"/><path d="M131.485 170.816h61.816v14.746h-83.886v-13.281l58.301-77.442h-57.422V79.898h80.078v12.793l-58.887 78.125z" fill="#fff"/><path d="M108.872 175.12c-7.031 8.268-17.35 12.402-30.957 12.402-11.263 0-19.856-3.255-25.78-9.766-5.86-6.575-8.822-16.276-8.887-29.101v-68.75h18.066v68.262c0 16.015 6.51 24.023 19.531 24.023 13.802 0 22.982-5.143 27.539-15.43V79.905h18.067v105.664h-17.188l-.391-10.449z" fill="#fff"/></svg>
